src/icons/check-circle.svg

<svg viewBox="0 0 40 40" fill="none" xmlns="http://www.w3.org/2000/svg">
<circle opacity="0.4" cx="20" cy="20" r="20" fill="currentColor"/>
<path d="M17.7377 30C18.5464 30 19.2022 29.5996 19.6831 28.8877L29.4536 13.337C29.7377 12.8699 30 12.3359 30 11.8242C30 10.7341 29.0382 10 28.0109 10C27.3552 10 26.765 10.356 26.306 11.1123L17.6721 25.2169L13.6066 19.9444C13.082 19.2547 12.5574 19.01 11.9016 19.01C10.8306 19.01 10 19.8776 10 20.99C10 21.5239 10.1967 22.0133 10.5464 22.4805L15.7268 28.8877C16.3169 29.6663 16.9508 30 17.7377 30Z" fill="currentColor"/>
</svg>

<svg viewBox="0 0 40 40" fill="none" xmlns="http://www.w3.org/2000/svg"><circle opacity=".4" cx="20" cy="20" r="20" fill="currentColor"/><path d="M17.738 30c.808 0 1.464-.4 1.945-1.112l9.77-15.551c.285-.467.547-1.001.547-1.513 0-1.09-.962-1.824-1.99-1.824-.655 0-1.245.356-1.704 1.112l-8.634 14.105-4.065-5.273c-.525-.69-1.05-.934-1.705-.934-1.071 0-1.902.868-1.902 1.98 0 .534.197 1.023.546 1.49l5.18 6.408c.59.778 1.225 1.112 2.012 1.112z" fill="currentColor"/></svg>
